X:38
T:Waistcoat Pocket. ThoH.038, The
Q:1/2=80
M:C
L:1/8
B:Thompson's Compleat Collection of 120 Favourite Hornpipes.
Z:Village Music Project, Simon Wilson 2016
O:England.
K:Bb
B/A/|BFDE FAce|dfdB{B}A2GF|EGcB AcdB|CBed{d}c2BA|
BFDE FAce|dfdB {B}A2GF|TE3g fdcB|F2tA2B2z:|
|:g|fgab fdcB|egec{B}A2GF|EGcB AcdB|CBedc2(fg/a/)|
bfdB Fafd|Egec{B}A2GF|TE3g fdcB|F2TA2B2z:|

